vectors/bittrex/bittrex.svg

<svg xmlns="http://www.w3.org/2000/svg" viewBox="0 0 241.03 263.33"><path d="M49.67 0v40.89h23.92v-15.2h143.52v154.14H73.59V97H49.67v108.52H241V0zM0 57.8v205.53h191.35v-42.55h-23.91v16.86H23.91V83.49h143.53v81.18h23.91V57.8z" fill="#0082d7"/></svg>

<svg xmlns="http://www.w3.org/2000/svg" viewBox="0 0 241.03 263.33"><path d="M49.67,0V40.89H73.59V25.69H217.11V179.83H73.59V97H49.67V205.52H241V0ZM0,57.8V263.33H191.35V220.78H167.44v16.86H23.91V83.49H167.44v81.18h23.91V57.8Z" fill="#0082d7"/></svg>
